resources/images/monitor_ams_extruder.svg

<svg width="36" height="55" xmlns="http://www.w3.org/2000/svg" xml:space="preserve" version="1.1">

 <g>
  <title>Layer 1</title>
  <path id="svg_1" fill="#FFFFFF" d="m-1.18502,-0.17467l0,55l38,0l0,-55l-38,0zm19.6,42.1c-6.8,0 -12.3,-5.5 -12.3,-12.3c0,-6.8 5.5,-12.3 12.3,-12.3c6.8,0 12.3,5.5 12.3,12.3c0,6.7 -5.5,12.3 -12.3,12.3z" class="st0"/>
  <path id="svg_2" fill="#ACACAC" d="m25.81498,7.52533l-15.7,0c-5.7,0 -10.4,4.6 -10.4,10.4l0,33.1l36.5,0l0,-33.1c0,-5.7 -4.6,-10.4 -10.4,-10.4zm-7.8,29.6c-4.2,0 -7.6,-3.4 -7.6,-7.6s3.4,-7.6 7.6,-7.6s7.6,3.4 7.6,7.6c0,4.2 -3.4,7.6 -7.6,7.6z" class="st1"/>
  <path id="svg_3" fill="#C0C0C0" d="m24.31498,11.22533l-12.7,0c-4.3,0 -7.8,3.5 -7.8,7.8l0,27.8l28.2,0l0,-27.8c0.1,-4.3 -3.4,-7.8 -7.7,-7.8zm-6.3,25.9c-4.2,0 -7.6,-3.4 -7.6,-7.6s3.4,-7.6 7.6,-7.6s7.6,3.4 7.6,7.6c0,4.2 -3.4,7.6 -7.6,7.6z" class="st2"/>
  <g id="svg_4">
   <path id="svg_5" fill="#818181" d="m18.01498,21.92533l0.4,-2.8l-0.9,0l0.4,2.8c0,0 0,0 0.1,0l0,0z" class="st3"/>
   <path id="svg_6" fill="#818181" d="m16.61498,19.22533l-0.9,0.2l0.8,2.7l0.1,0l0,-2.9z" class="st3"/>
   <path id="svg_7" fill="#818181" d="m14.81498,19.62533l-0.8,0.3l1.3,2.5c0,0 0.1,0 0.1,-0.1l-0.6,-2.7z" class="st3"/>
   <path id="svg_8" fill="#818181" d="m13.11498,20.32533l-0.8,0.4l1.7,2.2l0.1,-0.1l-1,-2.5z" class="st3"/>
   <path id="svg_9" fill="#818181" d="m11.61498,21.32533l-0.7,0.5l2.1,1.9l0.1,-0.1l-1.5,-2.3z" class="st3"/>
   <path id="svg_10" fill="#818181" d="m10.31498,22.52533l-0.6,0.7l2.4,1.5l0.1,-0.1l-1.9,-2.1z" class="st3"/>
   <path id="svg_11" fill="#818181" d="m9.21498,23.92533l-0.4,0.8l2.6,1.1l0.1,-0.1l-2.3,-1.8z" class="st3"/>
   <path id="svg_12" fill="#818181" d="m8.31498,25.52533l-0.3,0.8l2.7,0.6c0,0 0,-0.1 0.1,-0.1l-2.5,-1.3z" class="st3"/>
   <path id="svg_13" fill="#818181" d="m7.81498,27.32533l-0.2,0.9l2.8,0.1l0,-0.1l-2.6,-0.9z" class="st3"/>
   <path id="svg_14" fill="#818181" d="m10.31498,29.42533l-2.8,-0.4l0,0.9l2.8,-0.4c0,0.1 0,0 0,-0.1c0,0.1 0,0.1 0,0z" class="st3"/>
   <path id="svg_15" fill="#818181" d="m7.61498,30.92533l0.2,0.9l2.7,-0.8l0,-0.1l-2.9,0z" class="st3"/>
   <path id="svg_16" fill="#818181" d="m8.01498,32.72533l0.3,0.8l2.5,-1.3c0,0 0,-0.1 -0.1,-0.1l-2.7,0.6z" class="st3"/>
   <path id="svg_17" fill="#818181" d="m8.71498,34.32533l0.4,0.8l2.2,-1.7l-0.1,-0.1l-2.5,1z" class="st3"/>
   <path id="svg_18" fill="#818181" d="m9.71498,35.92533l0.6,0.7l1.9,-2.1l-0.1,-0.1l-2.4,1.5z" class="st3"/>
   <path id="svg_19" fill="#818181" d="m10.91498,37.22533l0.7,0.6l1.5,-2.4l-0.1,-0.1l-2.1,1.9z" class="st3"/>
   <path id="svg_20" fill="#818181" d="m12.41498,38.32533l0.8,0.4l1.1,-2.6l-0.1,-0.1l-1.8,2.3z" class="st3"/>
   <path id="svg_21" fill="#818181" d="m14.01498,39.12533l0.8,0.3l0.6,-2.7c0,0 -0.1,0 -0.1,-0.1l-1.3,2.5z" class="st3"/>
   <path id="svg_22" fill="#818181" d="m15.71498,39.72533l0.9,0.2l0.1,-2.8l-0.1,0l-0.9,2.6z" class="st3"/>
   <path id="svg_23" fill="#818181" d="m17.91498,37.12533l-0.4,2.8l0.9,0l-0.4,-2.8c0,0 0,0 -0.1,0l0,0z" class="st3"/>
   <path id="svg_24" fill="#818181" d="m19.31498,39.82533l0.9,-0.2l-0.8,-2.7l-0.1,0l0,2.9z" class="st3"/>
   <path id="svg_25" fill="#818181" d="m21.11498,39.42533l0.8,-0.3l-1.3,-2.5c0,0 -0.1,0 -0.1,0.1l0.6,2.7z" class="st3"/>
   <path id="svg_26" fill="#818181" d="m22.81498,38.72533l0.8,-0.4l-1.8,-2.2l-0.1,0.1l1.1,2.5z" class="st3"/>
   <path id="svg_27" fill="#818181" d="m24.31498,37.82533l0.7,-0.6l-2.1,-1.9l-0.1,0.1l1.5,2.4z" class="st3"/>
   <path id="svg_28" fill="#818181" d="m25.61498,36.52533l0.6,-0.7l-2.4,-1.4l-0.1,0.1l1.9,2z" class="st3"/>
   <path id="svg_29" fill="#818181" d="m26.71498,35.12533l0.4,-0.8l-2.6,-1.1l-0.1,0.1l2.3,1.8z" class="st3"/>
   <path id="svg_30" fill="#818181" d="m27.61498,33.52533l0.3,-0.8l-2.7,-0.6c0,0 0,0.1 -0.1,0.1l2.5,1.3z" class="st3"/>
   <path id="svg_31" fill="#818181" d="m28.11498,31.82533l0.2,-0.9l-2.8,-0.1l0,0.1l2.6,0.9z" class="st3"/>
   <path id="svg_32" fill="#818181" d="m25.61498,29.62533l2.8,0.4l0,-0.9l-2.8,0.4c0,0 0,0 0,0.1c0,-0.1 0,0 0,0z" class="st3"/>
   <path id="svg_33" fill="#818181" d="m28.31498,28.12533l-0.2,-0.9l-2.7,0.8l0,0.1l2.9,0z" class="st3"/>
   <path id="svg_34" fill="#818181" d="m27.91498,26.42533l-0.3,-0.8l-2.5,1.2c0,0 0,0.1 0.1,0.1l2.7,-0.5z" class="st3"/>
   <path id="svg_35" fill="#818181" d="m27.21498,24.72533l-0.4,-0.8l-2.2,1.7l0.1,0.1l2.5,-1z" class="st3"/>
   <path id="svg_36" fill="#818181" d="m26.21498,23.22533l-0.6,-0.7l-1.9,2.1l0.1,0.1l2.4,-1.5z" class="st3"/>
   <path id="svg_37" fill="#818181" d="m25.01498,21.82533l-0.7,-0.6l-1.5,2.4l0.1,0.1l2.1,-1.9z" class="st3"/>
   <path id="svg_38" fill="#818181" d="m23.51498,20.72533l-0.7,-0.4l-1.1,2.6l0.1,0.1l1.7,-2.3z" class="st3"/>
   <path id="svg_39" fill="#818181" d="m21.91498,19.92533l-0.8,-0.3l-0.6,2.7c0,0 0.1,0 0.1,0.1l1.3,-2.5z" class="st3"/>
   <path id="svg_40" fill="#818181" d="m20.21498,19.32533l-0.9,-0.2l-0.1,2.8l0.1,0l0.9,-2.6z" class="st3"/>
  </g>
  <path id="svg_41" fill="#ACACAC" d="m14.01498,51.02533l8.3,0l-0.6,2.8l-6.9,0l-0.8,-2.8z" class="st1"/>
  <path id="svg_42" fill="#D0D0D0" d="m16.81498,53.82533l2.3,0l-0.2,0.9l-1.9,0l-0.2,-0.9z" class="st4"/>
  <path id="svg_43" fill="#BBBBBB" d="m-0.28502,45.92533l7.9,0l0,7.4l-4,0l-3.9,-1.9c0,0 0,-5.5 0,-5.5z" class="st5"/>
  <path id="svg_44" fill="#BBBBBB" d="m36.21498,45.92533l-7.9,0l0,7.4l3.9,0l3.9,-1.9l0.1,-5.5l0,0z" class="st5"/>
  <path id="svg_45" fill="#CFCFCF" d="m3.81498,45.92533l28.2,0l0,5.5l-28.2,0l0,-5.5z" class="st6"/>
  <path id="svg_46" fill="#DDDDDD" d="m3.81498,47.32533l28.2,0l0,4.2l-28.2,0l0,-4.2z" class="st7"/>
  <path id="svg_47" fill="#8C8C8C" d="m22.81498,8.22533c0,0.4 -2.2,0.7 -4.9,0.7s-4.9,-0.3 -4.9,-0.7c0,-0.4 2.2,-0.7 4.9,-0.7s4.9,0.3 4.9,0.7z" class="st8"/>
  <path id="svg_48" fill="#C0C0C0" clip-rule="evenodd" fill-rule="evenodd" d="m15.25297,0.12533c-0.6,0 -1,0.4 -1,1l0,5.9c0,0.3 0,0.9 0,1c0,0.3 1.7,0.5 3.7,0.5s3.7,-0.2 3.7,-0.5c0,-0.1 0,-0.7 0,-1l0,-5.9c0,-0.6 -0.4,-1 -1,-1c0,0 -5.4,0 -5.4,0z" class="st9"/>
  <path id="svg_49" fill="#D2D2D2" d="m15.77729,2.52533c0,-0.6 0.4,-1 1,-1l2.5,0c0.6,0 1,0.4 1,1l0,3.3c0,0.6 -0.4,1 -1,1l-2.5,0c-0.6,0 -1,-0.4 -1,-1l0,-3.3z" class="st10"/>
  <path id="svg_50" d="m-11.10943,16.06187l0.56913,0l0.17587,-0.54067l0.17587,0.54067l0.56913,0l-0.46044,0.33415l0.17588,0.54067l-0.46044,-0.33416l-0.46044,0.33416l0.17588,-0.54067l-0.46044,-0.33415z" fill="#D2D2D2"/>
 </g>
</svg>

<svg width="36" height="55" viewBox="0 0 36 55" fill="none" xmlns="http://www.w3.org/2000/svg">
<g clip-path="url(#clip0_207_1489)">
<path d="M25.8148 7.52539H10.1148C4.41484 7.52539 -0.285156 12.1254 -0.285156 17.9254V51.0254H36.2148V17.9254C36.2148 12.2254 31.6148 7.52539 25.8148 7.52539V7.52539ZM18.0148 37.1254C13.8148 37.1254 10.4148 33.7254 10.4148 29.5254C10.4148 25.3254 13.8148 21.9254 18.0148 21.9254C22.2148 21.9254 25.6148 25.3254 25.6148 29.5254C25.6148 33.7254 22.2148 37.1254 18.0148 37.1254V37.1254Z" fill="#ACACAC"/>
<path d="M24.3149 11.2256H11.6149C7.31494 11.2256 3.81494 14.7256 3.81494 19.0256V46.8256H32.0149V19.0256C32.1149 14.7256 28.6149 11.2256 24.3149 11.2256V11.2256ZM18.0149 37.1256C13.8149 37.1256 10.4149 33.7256 10.4149 29.5256C10.4149 25.3256 13.8149 21.9256 18.0149 21.9256C22.2149 21.9256 25.6149 25.3256 25.6149 29.5256C25.6149 33.7256 22.2149 37.1256 18.0149 37.1256V37.1256Z" fill="#C0C0C0"/>
<path d="M18.0151 21.925L18.4151 19.125H17.5151L17.9151 21.925C17.9151 21.925 17.9151 21.925 18.0151 21.925Z" fill="#818181"/>
<path d="M16.6153 19.2246L15.7153 19.4246L16.5153 22.1246H16.6153V19.2246Z" fill="#818181"/>
<path d="M14.8151 19.625L14.0151 19.925L15.3151 22.425C15.3151 22.425 15.4151 22.425 15.4151 22.325L14.8151 19.625Z" fill="#818181"/>
<path d="M13.1149 20.3242L12.3149 20.7242L14.0149 22.9242L14.1149 22.8242L13.1149 20.3242V20.3242Z" fill="#818181"/>
<path d="M11.615 21.3242L10.915 21.8242L13.015 23.7242L13.115 23.6242L11.615 21.3242V21.3242Z" fill="#818181"/>
<path d="M10.3153 22.5254L9.71533 23.2254L12.1153 24.7254L12.2153 24.6254L10.3153 22.5254V22.5254Z" fill="#818181"/>
<path d="M9.21494 23.9258L8.81494 24.7258L11.4149 25.8258L11.5149 25.7258L9.21494 23.9258Z" fill="#818181"/>
<path d="M8.31514 25.5254L8.01514 26.3254L10.7151 26.9254C10.7151 26.9254 10.7151 26.8254 10.8151 26.8254L8.31514 25.5254Z" fill="#818181"/>
<path d="M7.81523 27.3242L7.61523 28.2242L10.4152 28.3242V28.2242L7.81523 27.3242Z" fill="#818181"/>
<path d="M10.3151 29.4254L7.51514 29.0254V29.9254L10.3151 29.5254C10.3151 29.6254 10.3151 29.5254 10.3151 29.4254C10.3151 29.5254 10.3151 29.5254 10.3151 29.4254Z" fill="#818181"/>
<path d="M7.61523 30.9258L7.81523 31.8258L10.5152 31.0258V30.9258H7.61523V30.9258Z" fill="#818181"/>
<path d="M8.01514 32.725L8.31514 33.525L10.8151 32.225C10.8151 32.225 10.8151 32.125 10.7151 32.125L8.01514 32.725V32.725Z" fill="#818181"/>
<path d="M8.71533 34.3242L9.11533 35.1242L11.3153 33.4242L11.2153 33.3242L8.71533 34.3242V34.3242Z" fill="#818181"/>
<path d="M9.71533 35.9258L10.3153 36.6258L12.2153 34.5258L12.1153 34.4258L9.71533 35.9258Z" fill="#818181"/>
<path d="M10.915 37.2242L11.615 37.8242L13.115 35.4242L13.015 35.3242L10.915 37.2242Z" fill="#818181"/>
<path d="M12.415 38.3254L13.215 38.7254L14.315 36.1254L14.215 36.0254L12.415 38.3254V38.3254Z" fill="#818181"/>
<path d="M14.0151 39.125L14.8151 39.425L15.4151 36.725C15.4151 36.725 15.3151 36.725 15.3151 36.625L14.0151 39.125V39.125Z" fill="#818181"/>
<path d="M15.7153 39.725L16.6153 39.925L16.7153 37.125H16.6153L15.7153 39.725V39.725Z" fill="#818181"/>
<path d="M17.9151 37.125L17.5151 39.925H18.4151L18.0151 37.125C18.0151 37.125 18.0151 37.125 17.9151 37.125Z" fill="#818181"/>
<path d="M19.3149 39.8258L20.2149 39.6258L19.4149 36.9258H19.3149V39.8258V39.8258Z" fill="#818181"/>
<path d="M21.1151 39.425L21.9151 39.125L20.6151 36.625C20.6151 36.625 20.5151 36.625 20.5151 36.725L21.1151 39.425V39.425Z" fill="#818181"/>
<path d="M22.8153 38.725L23.6153 38.325L21.8153 36.125L21.7153 36.225L22.8153 38.725Z" fill="#818181"/>
<path d="M24.3149 37.8242L25.0149 37.2242L22.9149 35.3242L22.8149 35.4242L24.3149 37.8242V37.8242Z" fill="#818181"/>
<path d="M25.6153 36.5258L26.2153 35.8258L23.8153 34.4258L23.7153 34.5258L25.6153 36.5258Z" fill="#818181"/>
<path d="M26.715 35.1246L27.115 34.3246L24.515 33.2246L24.415 33.3246L26.715 35.1246V35.1246Z" fill="#818181"/>
<path d="M27.6152 33.525L27.9152 32.725L25.2152 32.125C25.2152 32.125 25.2152 32.225 25.1152 32.225L27.6152 33.525Z" fill="#818181"/>
<path d="M28.1151 31.8242L28.3151 30.9242L25.5151 30.8242V30.9242L28.1151 31.8242Z" fill="#818181"/>
<path d="M25.6152 29.625L28.4152 30.025V29.125L25.6152 29.525C25.6152 29.525 25.6152 29.525 25.6152 29.625C25.6152 29.625 25.6152 29.525 25.6152 29.625Z" fill="#818181"/>
<path d="M28.315 28.1246L28.115 27.2246L25.415 28.0246V28.1246H28.315V28.1246Z" fill="#818181"/>
<path d="M27.9152 26.425L27.6152 25.625L25.1152 26.825C25.1152 26.825 25.1152 26.925 25.2152 26.925L27.9152 26.425Z" fill="#818181"/>
<path d="M27.2152 24.7258L26.8152 23.9258L24.6152 25.6258L24.7152 25.7258L27.2152 24.7258V24.7258Z" fill="#818181"/>
<path d="M26.2153 23.2254L25.6153 22.5254L23.7153 24.6254L23.8153 24.7254L26.2153 23.2254V23.2254Z" fill="#818181"/>
<path d="M25.0149 21.8246L24.3149 21.2246L22.8149 23.6246L22.9149 23.7246L25.0149 21.8246V21.8246Z" fill="#818181"/>
<path d="M23.5153 20.7242L22.8153 20.3242L21.7153 22.9242L21.8153 23.0242L23.5153 20.7242V20.7242Z" fill="#818181"/>
<path d="M21.9151 19.925L21.1151 19.625L20.5151 22.325C20.5151 22.325 20.6151 22.325 20.6151 22.425L21.9151 19.925Z" fill="#818181"/>
<path d="M20.2153 19.325L19.3153 19.125L19.2153 21.925H19.3153L20.2153 19.325Z" fill="#818181"/>
<path d="M14.0151 51.0254H22.3151L21.7151 53.8254H14.8151L14.0151 51.0254V51.0254Z" fill="#ACACAC"/>
<path d="M16.8149 53.8242H19.1149L18.9149 54.7242H17.0149L16.8149 53.8242V53.8242Z" fill="#D0D0D0"/>
<path d="M-0.285156 45.9258H7.61484V53.3258H3.61484L-0.285156 51.4258V45.9258V45.9258Z" fill="#BBBBBB"/>
<path d="M36.2149 45.9258H28.3149V53.3258H32.2149L36.1149 51.4258L36.2149 45.9258Z" fill="#BBBBBB"/>
<path d="M3.81494 45.9258H32.0149V51.4258H3.81494V45.9258V45.9258Z" fill="#CFCFCF"/>
<path d="M3.81494 47.3242H32.0149V51.5242H3.81494V47.3242V47.3242Z" fill="#DDDDDD"/>
<path d="M22.8151 8.22539C22.8151 8.62539 20.6151 8.92539 17.9151 8.92539C15.2151 8.92539 13.0151 8.62539 13.0151 8.22539C13.0151 7.82539 15.2151 7.52539 17.9151 7.52539C20.6151 7.52539 22.8151 7.82539 22.8151 8.22539Z" fill="#8C8C8C"/>
<path fill-rule="evenodd" clip-rule="evenodd" d="M15.2529 0.125C14.6529 0.125 14.2529 0.525 14.2529 1.125V7.025C14.2529 7.325 14.2529 7.925 14.2529 8.025C14.2529 8.325 15.9529 8.525 17.9529 8.525C19.9529 8.525 21.6529 8.325 21.6529 8.025C21.6529 7.925 21.6529 7.325 21.6529 7.025V1.125C21.6529 0.525 21.2529 0.125 20.6529 0.125H15.2529V0.125Z" fill="#C0C0C0"/>
<path d="M15.7773 2.52539C15.7773 1.92539 16.1773 1.52539 16.7773 1.52539H19.2773C19.8773 1.52539 20.2773 1.92539 20.2773 2.52539V5.82539C20.2773 6.42539 19.8773 6.82539 19.2773 6.82539H16.7773C16.1773 6.82539 15.7773 6.42539 15.7773 5.82539V2.52539V2.52539Z" fill="#D2D2D2"/>
</g>
<defs>
<clipPath id="clip0_207_1489">
<rect width="36" height="55" fill="white"/>
</clipPath>
</defs>
</svg>
